X:1
T:Title
%%score { ( 1 3 ) | ( 2 4 ) }
L:1/8
Q:1/4=100
M:4/4
K:Ab
V:1 treble nm="Grand Piano"
V:3 treble 
V:2 bass 
V:4 bass 
V:1
 [CE]2 z [CE] [CE]2 z [CE] | [CE][CA][_CG][CF][K:bass] [E,=CE]2 [A,E]2 | %2
w: Mrs.~Carrie~B.~Adams * * *||
 [G,DE]2 z [G,DE] E2 z[K:treble] E | EBGF E2 [DE]2 | [CE]2 z [CE] [CE]2 z [A,CE] | %5
w: |||
 [DF][CE][EA]B c2 [_Ge]2 | [Fe][Fd][FA][=EB] [_Ec]2 [DB]2 | [A,CA]6 z2 | B4 B4 | %9
w: ||||
 .[B,EGB]2 .[EG=d]2 [B,EGB]2 [B,EGB]2 | B4 B4 | .[B,=DAB]2 .[DA=d]2 [B,DAB]2 [B,DAB]2 | B4 B4 | %13
w: ||||
 .[B,EGB]2 .[EG=d]2 [B,EGB]2 [B,EB]2 | [B,EGc]2 [CE_Ge]2 [E=Ge]2 [EA=d]2 | e6 z2 | %16
w: |||
 [CE]2 z [CE] [CE]2 z [CE] | [CE][CA][_CG][CF][K:bass] [E,=CE]2 [A,E]2 | %18
w: ||
 [G,DE]2 z [G,DE] E2 z[K:treble] E | EBGF E2 [DE]2 | [CE]2 z [CE] [CE]2 z [A,CE] | %21
w: |||
 [DF][CE][EA]B c2 [_Ge]2 | [Fe][Fd][FA][=EB] [_Ec]2 [DB]2 |[M:8/4] [CA]8 z8 |] %24
w: |||
V:2
 [A,,A,]2 z [A,,A,] [A,,A,]2 z [A,,A,] | [A,,A,][A,,E,][A,,=D,][A,,D,] A,,2 C,2 | %2
 B,,2 z B,, [E,G,D]2 z [E,G,D] | [E,G,D][E,G,D][E,B,D][E,A,D] [E,G,D]2 [B,,G,]2 | %4
 [A,,A,]2 z [A,,A,] [A,,A,]2 z G,, | [A,,A,][A,,A,][C,A,][E,G,E] [A,E]2 [C,A,]2 | %6
 [D,A,][D,A,][D,A,][D,A,] [E,A,]2 [E,G,]2 | A,,6 z2 | E,2 z G E,2 z[K:treble] G | %9
 z e[K:bass] z c E,2 B,,2 | F,2 z F F,2 z[K:treble] F | z B[K:bass] z c F,2 B,,2 | %12
 E,2 z G E,2 z[K:treble] G | z e[K:bass] z c E,2 G,,2 | A,,2 =A,,2 [B,,B,]2 [B,,B,]2 | %15
 [E,B,E]2 E,2 E,D,C,B,, | [A,,A,]2 z [A,,A,] [A,,A,]2 z [A,,A,] | %17
 [A,,A,][A,,E,][A,,=D,][A,,D,] A,,2 C,2 | B,,2 z B,, [E,G,D]2 z [E,G,D] | %19
 [E,G,D][E,G,D][E,B,D][E,A,D] [E,G,D]2 [B,,G,]2 | [A,,A,]2 z [A,,A,] [A,,A,]2 z G,, | %21
 [A,,A,][A,,A,][C,A,][E,G,E] [A,E]2 [C,A,]2 | [D,A,][D,A,][D,A,][D,A,] [E,A,]2 [E,G,]2 | %23
[M:8/4] [A,,A,]8 z8 |] %24
V:3
 x8 | x4[K:bass] x4 | x7[K:treble] x | x8 | x8 | x8 | x8 | x8 | [B,EG]2 .[B,EG]2 [B,EG]2 .[B,EG]2 | %9
 x8 | [B,=DA]2 [B,DA]2 [B,DA]2 [B,DA]2 | x8 | [B,EG]2 .[B,EG]2 [B,EG]2 .[B,EG]2 | x8 | x8 | %15
 G2 [B,EG]2 [B,EG]2 z2 | x8 | x4[K:bass] x4 | x7[K:treble] x | x8 | x8 | x8 | x8 |[M:8/4] x16 |] %24
V:4
 x8 | x8 | x8 | x8 | x8 | x8 | x8 | x8 | z2 B,,2 z2 B,,2[K:treble] | E,2[K:bass] [B,,B,]2 z4 | %10
 z2 B,,2 z2 B,,2[K:treble] | F,2[K:bass] [B,,B,]2 z4 | z2 B,,2 z2 B,,2[K:treble] | %13
 E,2[K:bass] [B,,B,]2 z4 | x8 | x8 | x8 | x8 | x8 | x8 | x8 | x8 | x8 |[M:8/4] x16 |] %24

